!!!OTL: Der Mann ins Heu
!!!ARE: Europa, Mitteleuropa, Deutschland
!!!SCT: A0471
!!!YEM: Copyright 1995, estate of Helmut Schaffrath.
**kern
*ICvox
*Ivox
*M6/4
*k[b-]
*F:
{4a
=1
2a
4a
2a
4a
=2
2a
4a
2a
4a
=3
2a
4a
2a
4f}
=4
{4.g
8a
4b-
4.a
8g
4f
=5
4.g
8a
4b-
4.a
8g
4f
=6
2.g
4g
4r}
{4g
=7
2g
4g
2a
4a
=8
2b-
4b-
2a}
{4a
=9
2g
4f
2f
4e
=10
2.f
4f
4r}
{4f
=11
2d
4d
2e
4e
=12
2f
4f
2f}
{4f
=13
2d
4d
2e
4e
=14
2.f
2f}
==
!!!AGN: Romanze, Ballade, Lied
!! Gassenhawerlin 1535 No. 13.
!!!ONB: ESAC (Essen Associative Code) Database: ALTDEU
!!!AMT: compound duple
!!!AIN: vox
!!!EED: Helmut Schaffrath
!!!EEV: 1.0
*-
